X:128
T:Henry's Halcyou
S:American Veteran Fifer #128
C:A.F. Hopkins, National Fife Major
M:6/8
L:1/8
Q:1/8=300
K:D 
%%MIDI program 72
%%MIDI transpose 8
%%MIDI ratio 3 1
f/g/ | a3 g3 | fag ecA | d2f e2g | fba efg |
a3 g3 | fag ecA | d2f ebg | ecA d2 :|
|: z | e2f gfe | a3- afa | gbg faf | efa geA |
def gef | a3- afa | gbg faf | ecA d2 :|



